X: 24425
T: Low Lights On The Corrib
R: hornpipe
M: 4/4
K: Dmajor
(3DEF|:Ad (3cde dcAG|(3FGA (3GFE DCA,G,|A,D{E}DE (3FGA ce|gedc edcB|
Acec dcAG|(3FGA (3GFE DCA,G,|A,DDE (3FGA GC|ED{E}DE /D2 (3EFG:|
|:Adfa g2ag|fd{e}dc AGEA|defg abfd|abeg fB ~B2|
abge dcAG|(3FGA (3GFE DCA,G,|A,D{E}DE (3FGA GC|ED{E}DC D2 (3EFG:|

